src/images/enterprise-02.svg

<svg xmlns="http://www.w3.org/2000/svg" width="250" height="291" fill="none" viewBox="0 0 250 291"><path fill="#F96132" fill-rule="evenodd" d="M19.7025 11.2572H230.298C234.198 11.2667 237.935 12.8237 240.688 15.5861C243.44 18.3485 244.983 22.0903 244.976 25.9891V238.031C244.977 241.931 243.437 245.673 240.691 248.443C237.938 251.199 234.205 252.752 230.31 252.763H19.7025C15.8021 252.754 12.065 251.197 9.31261 248.434C6.56018 245.672 5.01762 241.93 5.02395 238.031V25.9891C5.01762 22.0903 6.56018 18.3485 9.31261 15.5861C12.065 12.8237 15.8021 11.2667 19.7025 11.2572V11.2572Z" clip-rule="evenodd"/><path fill="#F96132" fill-rule="evenodd" d="M86.5952 6.74719L92.2619 10.4718L86.5952 6.74719Z" clip-rule="evenodd"/><path stroke="#F7A501" stroke-linecap="round" stroke-linejoin="round" stroke-width="2.5" d="M86.5952 6.74719L92.2619 10.4718"/><path stroke="#F7A501" stroke-linecap="round" stroke-linejoin="round" stroke-width="2.5" d="M78.2023 232.986L77.7261 18.5994L86.7141 6.69958L95.1785 18.7659L95.5594 234.83L78.2023 232.986Z"/><path stroke="#F7A501" stroke-linecap="round" stroke-linejoin="round" stroke-width="2.5" d="M94.7621 216.243L78.2026 204.783L94.6311 193.026L78.4049 180.817L95.1788 169.084L78.2026 157.053L94.8692 145.082L78.2026 132.825L94.9883 121.187L78.7025 108.562L94.8097 96.8046L77.9287 85.0833L94.5954 73.5644L78.2026 72.9932L94.4644 84.7501L78.2026 96.7689L94.7026 108.562L78.0359 120.069L94.8216 132.635L78.0359 144.166L94.1311 157.41L78.1549 168.822L94.8216 181.317L79.0835 193.098L95.0478 204.854L78.8216 216.826L94.7621 216.243Z"/><path stroke="#F7A501" stroke-linecap="round" stroke-linejoin="round" stroke-width="2.5" d="M77.7976 42.6725L94.8333 42.4226L77.9405 31.1297L94.7024 19.1467L77.6548 18.4446L94.7143 30.8679L77.7976 42.6725Z"/><path fill="#F96132" fill-rule="evenodd" stroke="#F7A501" stroke-linecap="round" stroke-linejoin="round" stroke-width="2.5" d="M66.762 41.1732H104.857L111.036 45.7427L104.81 69.1258H66.7144L66.762 41.1732Z" clip-rule="evenodd"/><path stroke="#fff" stroke-linecap="round" stroke-linejoin="round" stroke-width="2.5" d="M83.9879 236.913L83.5117 22.5144L92.4999 10.6146L100.916 22.7167L101.297 238.769L83.9879 236.913Z"/><path stroke="#fff" stroke-linecap="round" stroke-linejoin="round" stroke-width="2.5" d="M100.524 220.122L83.9883 208.591L100.441 196.905L84.1906 184.684L100.857 172.975L83.9883 160.921L100.655 148.902L83.9883 136.681L100.774 125.055L84.4526 112.417L100.56 100.66L83.6431 88.9032L100.31 77.4318L83.9169 76.8606L100.179 88.558L83.893 100.624L100.381 112.465L83.8097 123.996L100.595 136.538L83.8097 148.069L99.9644 161.325L83.9883 172.749L100.655 185.22L84.9287 197.012L100.905 208.769L84.6669 220.741L100.524 220.122Z"/><path stroke="#fff" stroke-linecap="round" stroke-linejoin="round" stroke-width="2.5" d="M83.5831 46.5162L100.619 46.2782L83.7379 34.9973L100.547 23.0975L83.5117 22.3716L100.547 34.7712L83.5831 46.5162Z"/><path fill="#F7A501" fill-rule="evenodd" stroke="#F7A501" stroke-linecap="round" stroke-linejoin="round" stroke-width="2.5" d="M66.5954 41.4469L72.5478 46.54L72.2858 74.1832L66.4287 69.1972L66.5954 41.4469Z" clip-rule="evenodd"/><path fill="#F96132" fill-rule="evenodd" stroke="#fff" stroke-linecap="round" stroke-linejoin="round" stroke-width="2.5" d="M72.7739 46.0521H110.869V73.969H72.7739V46.0521Z" clip-rule="evenodd"/><path stroke="#35416B" stroke-linecap="round" stroke-linejoin="round" stroke-width="2.5" d="M189.167 90.7239L203.762 99.0537"/><path stroke="#35416B" stroke-linecap="round" stroke-linejoin="round" stroke-width="2.5" d="M189.167 90.7239L210.595 102.933"/><path stroke="#F7A501" stroke-linecap="round" stroke-linejoin="round" stroke-width="2.5" d="M66.9405 47.9204L42.7619 47.7062L42.4048 60.0938H67.0119L66.9405 47.9204Z"/><path fill="#F96132" fill-rule="evenodd" stroke="#F7A501" stroke-linecap="round" stroke-linejoin="round" stroke-width="2.5" d="M21.1073 44.3029H44.5954L48.6788 47.7895L44.5954 65.6391L24.7621 70.1491L21.0835 65.6391L21.1073 44.3029Z" clip-rule="evenodd"/><path stroke="#F7A501" stroke-linecap="round" stroke-linejoin="round" stroke-width="2.5" d="M112.762 53.7513L120.024 60.6532L133 48.3369L143.214 60.2367L155.916 48.444L168.345 59.4751L179.416 49.3008L191.702 59.8321L198.333 48.4559L199.167 59.8321L189.083 48.4559L178.595 60.0939L168.25 48.8962L154.845 60.2605L144.059 48.3607L131.357 59.9868L118.512 48.3726L112.762 53.7513Z"/><path stroke="#F7A501" stroke-linecap="round" stroke-linejoin="round" stroke-width="2.5" d="M66.2262 48.6463L54.1786 59.3561L43.4643 48.3964L42.6904 59.7487L54.75 48.4559L66.1904 59.1657L66.2262 48.6463Z"/><path stroke="#fff" stroke-linecap="round" stroke-linejoin="round" stroke-width="2.5" d="M111.202 54.0963L203.416 54.5366L214.321 66.7458L111.345 67.3288L111.202 54.0963Z"/><path stroke="#F7A501" stroke-linecap="round" stroke-linejoin="round" stroke-width="2.5" d="M112.274 47.5157L197.869 47.9085L208.774 60.1176L112.345 60.3556L112.274 47.5157Z"/><path stroke="#fff" stroke-linecap="round" stroke-linejoin="round" stroke-width="2.5" d="M111.476 53.8108L125.559 67.2456L138.536 54.9175L148.738 66.8172L161.428 55.0603L173.857 66.1151L184.833 55.8694L197.107 66.4007L203.762 55.0365L204.571 66.4007L194.5 55.0365L184.024 66.6625L173.726 55.4768L160.333 66.841L149.547 54.8461L136.845 66.5078L124 55.0008L111.726 66.6625L111.476 53.8108Z"/><path stroke="#fff" stroke-linecap="round" stroke-linejoin="round" stroke-width="2.5" d="M72.4524 54.4891L48.2738 54.3105L47.9048 66.6863H72.5238L72.4524 54.4891Z"/><path stroke="#fff" stroke-linecap="round" stroke-linejoin="round" stroke-width="2.5" d="M71.7264 55.2745L59.6668 65.9843L48.9525 55.0127L48.1787 66.377L60.1907 55.0484L71.7383 65.7582L71.7264 55.2745Z"/><path fill="#fff" fill-rule="evenodd" stroke="#fff" stroke-linecap="round" stroke-linejoin="round" stroke-width="2.5" d="M24.8931 48.6106H48.3812V69.9469H24.8931V48.6106Z" clip-rule="evenodd"/><path fill="#F7A501" fill-rule="evenodd" stroke="#F7A501" stroke-linecap="round" stroke-linejoin="round" stroke-width="2.5" d="M24.3096 48.5153L21.1786 44.636L20.9644 65.4606L24.0834 69.6255L24.3096 48.5153Z" clip-rule="evenodd"/><path stroke="#F7A501" stroke-linejoin="round" stroke-width="2.5" d="M185.595 67.6145V81.323"/><path stroke="#fff" stroke-linecap="round" stroke-linejoin="round" stroke-width="2.5" d="M187.476 67.1028V80.8351"/><path stroke="#fff" stroke-linejoin="round" stroke-width="2.5" d="M189.369 83.1318C189.351 82.6908 189.2 82.2656 188.937 81.9112C188.673 81.5568 188.31 81.2897 187.893 81.1446C187.476 80.9827 187.019 80.9495 186.583 81.0494C186.153 81.1496 185.763 81.3778 185.464 81.7039C185.157 82.0359 184.95 82.4487 184.869 82.8938C184.794 83.3321 184.848 83.7826 185.024 84.1909C185.194 84.6004 185.485 84.9488 185.857 85.1905C186.21 85.4279 186.623 85.56 187.048 85.5713C187.355 85.5578 187.657 85.4893 187.94 85.369C188.219 85.2459 188.47 85.0678 188.678 84.8454C188.894 84.6292 189.06 84.3695 189.167 84.0838C189.273 83.7989 189.322 83.4954 189.309 83.1913L189.369 83.1318Z"/><path stroke="#fff" stroke-linecap="round" stroke-linejoin="round" stroke-width="2.5" d="M187.131 85.6188C187.131 85.6188 185.381 89.986 185.822 91.8305C186.262 93.6749 188.595 93.1633 189.453 92.1518C190.31 91.1403 189.179 88.6652 189.179 88.6652"/><path fill="#F7A501" fill-rule="evenodd" stroke="#F7A501" stroke-linecap="round" stroke-linejoin="round" stroke-width="2.5" d="M168.964 100.363H202.643L210.369 104.516L202.643 118.046L176.369 122.187L168.94 118.046L168.964 100.363Z" clip-rule="evenodd"/><path fill="#F7A501" fill-rule="evenodd" stroke="#F7A501" stroke-linecap="round" stroke-linejoin="round" stroke-width="2.5" d="M164.476 97.947H198.143L210.178 103.635L198.119 115.606L175.083 122.52L164.226 118.819L164.476 97.947Z" clip-rule="evenodd"/><path fill="#F7A501" fill-rule="evenodd" stroke="#F7A501" stroke-linecap="round" stroke-linejoin="round" stroke-width="2.5" d="M82.2025 212.244L122.941 212.554L123.119 195.097L163.798 195.882L163.976 131.064L198.738 130.612L210.06 136.562L198.595 200.82H228.357L239.798 206.425L228.322 225.465C227.488 239.245 216.024 239.518 215.75 239.495L8.60729 236.401C7.20253 236.401 7.60733 228.618 7.60733 228.618L82.262 230.07L82.2025 212.244Z" clip-rule="evenodd"/><path fill="#F96132" fill-rule="evenodd" stroke="#F7A501" stroke-linecap="round" stroke-linejoin="round" stroke-width="2.5" d="M176.643 104.682H210.334V122.353H176.643V104.682Z" clip-rule="evenodd"/><path fill="#F96132" fill-rule="evenodd" stroke="#F7A501" stroke-linecap="round" stroke-linejoin="round" stroke-width="2.5" d="M175.131 104.349H208.821V121.985H175.131V104.349Z" clip-rule="evenodd"/><path fill="#F96132" fill-rule="evenodd" stroke="#F7A501" stroke-linecap="round" stroke-linejoin="round" stroke-width="2.5" d="M175.131 103.968H210.286V122.389H175.131V103.968Z" clip-rule="evenodd"/><path fill="#fff" fill-rule="evenodd" stroke="#fff" stroke-linecap="round" stroke-linejoin="round" stroke-width="2.5" d="M164.453 97.8756L176.084 103.968L210.441 103.766L198.131 98.0184L164.453 97.8756Z" clip-rule="evenodd"/><path fill="#fff" fill-rule="evenodd" stroke="#fff" stroke-linecap="round" stroke-linejoin="round" stroke-width="2.5" d="M123.167 195.013L135.631 201.32L175.345 202.213L162.714 195.62L123.167 195.013Z" clip-rule="evenodd"/><path fill="#fff" fill-rule="evenodd" stroke="#fff" stroke-linecap="round" stroke-linejoin="round" stroke-width="2.5" d="M7.34521 228.583L7.49998 235.282L93.75 236.282L81.2857 229.404L7.34521 228.583Z" clip-rule="evenodd"/><path fill="#fff" fill-rule="evenodd" stroke="#fff" stroke-linecap="round" stroke-linejoin="round" stroke-width="2.5" d="M82.0117 212.435L94.8569 218.646L134.274 218.932L122.19 212.173L82.0117 212.435Z" clip-rule="evenodd"/><path fill="#fff" fill-rule="evenodd" stroke="#fff" stroke-linecap="round" stroke-linejoin="round" stroke-width="2.5" d="M163.988 131.207L175.762 137.157L210.119 136.788L198.976 130.695L163.988 131.207Z" clip-rule="evenodd"/><path stroke="#35416B" stroke-linecap="round" stroke-linejoin="round" stroke-width="2.5" d="M187.857 91.295L166.512 99.7915V120.021"/><path stroke="#35416B" stroke-linecap="round" stroke-linejoin="round" stroke-width="2.5" d="M187.857 91.295L174.762 104.48L173.929 123.174"/><path fill="#F96132" d="M92.8812 236.615H7.04785L10.036 248.515H239.595L243.595 243.6L244.584 216.588H241.012V205.116H212.905V137.918H174.738V202.177H134.56V219.134H92.8931L92.8812 236.615Z"/></svg>

<svg fill="none" viewBox="0 0 250 291"><path fill="#F96132" fill-rule="evenodd" d="M19.703 11.257h210.595a14.72 14.72 0 0110.39 4.33 14.703 14.703 0 014.288 10.402v212.042a14.783 14.783 0 01-4.285 10.412 14.732 14.732 0 01-10.381 4.32H19.702a14.713 14.713 0 01-14.678-14.732V25.989a14.705 14.705 0 014.289-10.403 14.718 14.718 0 0110.39-4.329zm66.892-4.51l5.667 3.725-5.667-3.725z" clip-rule="evenodd"/><path stroke="#F7A501" stroke-linecap="round" stroke-linejoin="round" stroke-width="2.5" d="M86.595 6.747l5.667 3.725m-14.06 222.514l-.476-214.387 8.988-11.9 8.465 12.067.38 216.064-17.357-1.844z"/><path stroke="#F7A501" stroke-linecap="round" stroke-linejoin="round" stroke-width="2.5" d="M94.762 216.243l-16.56-11.46 16.43-11.757-16.227-12.209 16.774-11.733-16.976-12.031 16.666-11.971-16.666-12.257 16.785-11.638-16.285-12.625L94.81 96.805 77.929 85.083l16.666-11.519-16.392-.57L94.464 84.75 78.203 96.77l16.5 11.793-16.667 11.507 16.786 12.566-16.786 11.531L94.13 157.41l-15.976 11.412 16.667 12.495-15.739 11.781 15.965 11.756-16.226 11.972 15.94-.583zM77.798 42.673l17.035-.25L77.941 31.13l16.761-11.983-17.047-.702 17.06 12.423-16.917 11.805z"/><path fill="#F96132" fill-rule="evenodd" stroke="#F7A501" stroke-linecap="round" stroke-linejoin="round" stroke-width="2.5" d="M66.762 41.173h38.095l6.179 4.57-6.226 23.383H66.714l.048-27.953z" clip-rule="evenodd"/><path stroke="#fff" stroke-linecap="round" stroke-linejoin="round" stroke-width="2.5" d="M83.988 236.913l-.476-214.399 8.988-11.9 8.416 12.103.381 216.052-17.31-1.856z"/><path stroke="#fff" stroke-linecap="round" stroke-linejoin="round" stroke-width="2.5" d="M100.524 220.122l-16.536-11.531 16.453-11.686-16.25-12.221 16.666-11.709-16.869-12.054 16.667-12.019-16.667-12.221 16.786-11.626-16.321-12.638 16.107-11.757-16.917-11.757 16.667-11.471-16.393-.571 16.262 11.697-16.286 12.066 16.488 11.841-16.571 11.531 16.785 12.542-16.785 11.531 16.154 13.256-15.976 11.424 16.667 12.471-15.726 11.792 15.976 11.757-16.238 11.972 15.857-.619zM83.584 46.516l17.035-.238-16.881-11.28 16.809-11.9-17.035-.726 17.035 12.4-16.964 11.744z"/><path fill="#F7A501" fill-rule="evenodd" stroke="#F7A501" stroke-linecap="round" stroke-linejoin="round" stroke-width="2.5" d="M66.595 41.447l5.953 5.093-.262 27.643-5.857-4.986.166-27.75z" clip-rule="evenodd"/><path fill="#F96132" fill-rule="evenodd" stroke="#fff" stroke-linecap="round" stroke-linejoin="round" stroke-width="2.5" d="M72.774 46.052h38.095V73.97H72.774V46.052z" clip-rule="evenodd"/><path stroke="#35416B" stroke-linecap="round" stroke-linejoin="round" stroke-width="2.5" d="M189.167 90.724l14.595 8.33m-14.595-8.33l21.428 12.209"/><path stroke="#F7A501" stroke-linecap="round" stroke-linejoin="round" stroke-width="2.5" d="M66.94 47.92l-24.178-.214-.357 12.388h24.607L66.94 47.92z"/><path fill="#F96132" fill-rule="evenodd" stroke="#F7A501" stroke-linecap="round" stroke-linejoin="round" stroke-width="2.5" d="M21.107 44.303h23.488l4.084 3.486-4.084 17.85-19.833 4.51-3.678-4.51.023-21.336z" clip-rule="evenodd"/><path stroke="#F7A501" stroke-linecap="round" stroke-linejoin="round" stroke-width="2.5" d="M112.762 53.751l7.262 6.902L133 48.337l10.214 11.9 12.702-11.793 12.429 11.031 11.071-10.174 12.286 10.531 6.631-11.376.834 11.376-10.084-11.376-10.488 11.638-10.345-11.198-13.405 11.364-10.786-11.9-12.702 11.627-12.845-11.614-5.75 5.378zm-46.536-5.105L54.18 59.356l-10.715-10.96-.774 11.353 12.06-11.293 11.44 10.71.036-10.52z"/><path stroke="#fff" stroke-linecap="round" stroke-linejoin="round" stroke-width="2.5" d="M111.202 54.096l92.214.44 10.905 12.21-102.976.583-.143-13.233z"/><path stroke="#F7A501" stroke-linecap="round" stroke-linejoin="round" stroke-width="2.5" d="M112.274 47.516l85.595.392 10.905 12.21-96.429.238-.071-12.84z"/><path stroke="#fff" stroke-linecap="round" stroke-linejoin="round" stroke-width="2.5" d="M111.476 53.81l14.083 13.436 12.977-12.328 10.202 11.9 12.69-11.758 12.429 11.055 10.976-10.246 12.274 10.532 6.655-11.364.809 11.364L194.5 55.037l-10.476 11.625-10.298-11.185-13.393 11.364-10.786-11.995-12.702 11.662L124 55l-12.274 11.661-.25-12.851zm-39.024.68l-24.178-.18-.37 12.376h24.62l-.072-12.197z"/><path stroke="#fff" stroke-linecap="round" stroke-linejoin="round" stroke-width="2.5" d="M71.726 55.275l-12.06 10.71-10.713-10.972-.774 11.364L60.19 55.048l11.547 10.71-.012-10.483z"/><path fill="#fff" fill-rule="evenodd" stroke="#fff" stroke-linecap="round" stroke-linejoin="round" stroke-width="2.5" d="M24.893 48.61h23.488v21.337H24.893V48.61z" clip-rule="evenodd"/><path fill="#F7A501" fill-rule="evenodd" stroke="#F7A501" stroke-linecap="round" stroke-linejoin="round" stroke-width="2.5" d="M24.31 48.515l-3.131-3.879-.215 20.825 3.12 4.165.226-21.11z" clip-rule="evenodd"/><path stroke="#F7A501" stroke-linejoin="round" stroke-width="2.5" d="M185.595 67.615v13.708"/><path stroke="#fff" stroke-linecap="round" stroke-linejoin="round" stroke-width="2.5" d="M187.476 67.103v13.732"/><path stroke="#fff" stroke-linejoin="round" stroke-width="2.5" d="M189.369 83.132a2.2 2.2 0 00-1.476-1.987 2.24 2.24 0 00-1.31-.096c-.43.1-.82.329-1.119.655a2.382 2.382 0 00-.595 1.19c-.075.438-.021.889.155 1.297.17.41.461.758.833 1a2.24 2.24 0 001.191.38c.307-.013.609-.082.892-.202a2.25 2.25 0 00.738-.524 2.13 2.13 0 00.489-.761c.106-.285.155-.589.142-.893l.06-.06z"/><path stroke="#fff" stroke-linecap="round" stroke-linejoin="round" stroke-width="2.5" d="M187.131 85.619s-1.75 4.367-1.309 6.212c.44 1.844 2.773 1.332 3.631.32.857-1.01-.274-3.486-.274-3.486"/><path fill="#F7A501" fill-rule="evenodd" stroke="#F7A501" stroke-linecap="round" stroke-linejoin="round" stroke-width="2.5" d="M168.964 100.363h33.679l7.726 4.153-7.726 13.53-26.274 4.141-7.429-4.141.024-17.683z" clip-rule="evenodd"/><path fill="#F7A501" fill-rule="evenodd" stroke="#F7A501" stroke-linecap="round" stroke-linejoin="round" stroke-width="2.5" d="M164.476 97.947h33.667l12.035 5.688-12.059 11.971-23.036 6.914-10.857-3.701.25-20.872zM82.203 212.244l40.738.31.178-17.457 40.679.785.178-64.818 34.762-.452 11.322 5.95-11.465 64.258h29.762l11.441 5.605-11.476 19.04c-.834 13.78-12.298 14.053-12.572 14.03L8.607 236.401c-1.404 0-1-7.783-1-7.783l74.655 1.452-.06-17.826z" clip-rule="evenodd"/><path fill="#F96132" fill-rule="evenodd" stroke="#F7A501" stroke-linecap="round" stroke-linejoin="round" stroke-width="2.5" d="M176.643 104.682h33.691v17.671h-33.691v-17.671z" clip-rule="evenodd"/><path fill="#F96132" fill-rule="evenodd" stroke="#F7A501" stroke-linecap="round" stroke-linejoin="round" stroke-width="2.5" d="M175.131 104.349h33.69v17.636h-33.69v-17.636z" clip-rule="evenodd"/><path fill="#F96132" fill-rule="evenodd" stroke="#F7A501" stroke-linecap="round" stroke-linejoin="round" stroke-width="2.5" d="M175.131 103.968h35.155v18.421h-35.155v-18.421z" clip-rule="evenodd"/><path fill="#fff" fill-rule="evenodd" stroke="#fff" stroke-linecap="round" stroke-linejoin="round" stroke-width="2.5" d="M164.453 97.876l11.631 6.092 34.357-.202-12.31-5.748-33.678-.142zm-41.286 97.137l12.464 6.307 39.714.893-12.631-6.593-39.547-.607zM7.345 228.583l.155 6.699 86.25 1-12.464-6.878-73.94-.821zm74.667-16.148l12.845 6.211 39.417.286-12.084-6.759-40.178.262zm81.976-81.228l11.774 5.95 34.357-.369-11.143-6.093-34.988.512z" clip-rule="evenodd"/><path stroke="#35416B" stroke-linecap="round" stroke-linejoin="round" stroke-width="2.5" d="M187.857 91.295l-21.345 8.496v20.23"/><path stroke="#35416B" stroke-linecap="round" stroke-linejoin="round" stroke-width="2.5" d="M187.857 91.295l-13.095 13.185-.833 18.694"/><path fill="#F96132" d="M92.881 236.615H7.048l2.988 11.9h229.559l4-4.915.989-27.012h-3.572v-11.472h-28.107v-67.198h-38.167v64.259H134.56v16.957H92.893l-.012 17.481z"/></svg>
